X:227
T:Polska efter Ored Andersson
R:sl\"angpolska
H:jfr #115, #127, #212, #226
B:SvL Sk{\aa}ne 325, efter Ored Andersson, Linder\"od
O:Sk{\aa}ne
Z:id:hn-sp-227
M:3/4
L:1/16
K:C
g4 a4 g4 | gfef gagf f2e2 | g2g2 a2a2 g2e2 | gfed d4 c4 :|
|: e4 f4 e4 | edcd efed d2c2 | e2e2 f2f2 e2g2 | gfed d4 c4 :|

